fs/accessibility_checkmark_24_regular.svg

<svg viewBox="0 0 24 24" fill="none" xmlns="http://www.w3.org/2000/svg" height="1em" width="1em">
  <path d="M9.02647 5.39876C9.00914 5.2683 9.0002 5.1352 9.0002 5C9.0002 3.34315 10.3433 2 12.0002 2C13.6571 2 15.0002 3.34315 15.0002 5C15.0002 5.13522 14.9913 5.26835 14.9739 5.39883L17.8504 4.17784C18.9935 3.6926 20.3183 4.2222 20.8118 5.36177C21.3071 6.50526 20.7779 7.82908 19.6308 8.31599L16.0027 9.85602V11.1733C15.475 11.2977 14.9721 11.4865 14.5027 11.7308V9.69055C14.5027 9.18894 14.8026 8.73591 15.2643 8.53992L19.0447 6.93523C19.4253 6.77369 19.5997 6.33732 19.4354 5.95794C19.2694 5.57464 18.821 5.39538 18.4365 5.55859L13.4655 7.66865C13.306 7.73636 13.143 7.79254 12.9776 7.83718C12.6712 7.9427 12.3424 8 12.0002 8C11.6578 8 11.3288 7.94264 11.0223 7.83699C10.8571 7.79238 10.6943 7.73627 10.535 7.66865L5.56405 5.55859C5.17954 5.39538 4.73116 5.57464 4.56514 5.95794C4.40082 6.33732 4.57528 6.77369 4.95584 6.93523L8.74113 8.54199C9.20286 8.73798 9.50271 9.19101 9.50271 9.69262V13.6014C9.50271 13.7399 9.4797 13.8774 9.43461 14.0083L7.54201 19.5048C7.40716 19.8965 7.61533 20.3233 8.00697 20.4581C8.39862 20.593 8.82543 20.3848 8.96029 19.9932L11.0686 13.8702C11.2901 13.2264 12.0099 13.0511 12.505 13.3404C11.5653 14.4676 11 15.9178 11 17.5C11 17.8292 11.0245 18.1526 11.0717 18.4686L10.3786 20.4815C9.974 21.6565 8.69356 22.281 7.51862 21.8764C6.34368 21.4719 5.71917 20.1914 6.12373 19.0165L8.00271 13.5595V9.85809L4.36975 8.31599C3.22266 7.82908 2.69342 6.50526 3.1887 5.36177C3.68228 4.2222 5.00701 3.6926 6.15015 4.17784L9.02647 5.39876ZM10.5002 5C10.5002 5.64117 10.9025 6.18838 11.4684 6.403C11.8177 6.48797 12.1824 6.48801 12.5317 6.4031C13.0978 6.18855 13.5002 5.64127 13.5002 5C13.5002 4.17157 12.8286 3.5 12.0002 3.5C11.1718 3.5 10.5002 4.17157 10.5002 5ZM23 17.5C23 20.5376 20.5376 23 17.5 23C14.4624 23 12 20.5376 12 17.5C12 14.4624 14.4624 12 17.5 12C20.5376 12 23 14.4624 23 17.5ZM20.8536 15.1464C20.6583 14.9512 20.3417 14.9512 20.1464 15.1464L16.5 18.7929L14.8536 17.1464C14.6583 16.9512 14.3417 16.9512 14.1464 17.1464C13.9512 17.3417 13.9512 17.6583 14.1464 17.8536L16.1464 19.8536C16.3417 20.0488 16.6583 20.0488 16.8536 19.8536L20.8536 15.8536C21.0488 15.6583 21.0488 15.3417 20.8536 15.1464Z" fill="#212121"/>
</svg>

<svg viewBox="0 0 24 24" fill="none" xmlns="http://www.w3.org/2000/svg" height="1em" width="1em">
  <path d="M9.026 5.399a3 3 0 1 1 5.947 0l2.877-1.221a2.266 2.266 0 0 1 2.962 1.184 2.24 2.24 0 0 1-1.181 2.954l-3.628 1.54v1.317a6.457 6.457 0 0 0-1.5.558V9.69c0-.502.3-.955.761-1.151l3.78-1.605a.74.74 0 0 0 .391-.977.766.766 0 0 0-.998-.4l-4.972 2.11a3.748 3.748 0 0 1-.487.17 2.996 2.996 0 0 1-1.956-.001 3.747 3.747 0 0 1-.487-.168l-4.971-2.11a.766.766 0 0 0-.999.399.74.74 0 0 0 .39.977l3.786 1.607c.462.196.762.649.762 1.15v3.91c0 .138-.023.275-.068.406l-1.893 5.497a.75.75 0 1 0 1.418.488l2.109-6.123c.221-.644.94-.819 1.436-.53A6.474 6.474 0 0 0 11 17.5c0 .33.024.653.072.969l-.693 2.012a2.25 2.25 0 1 1-4.255-1.465l1.879-5.456V9.857L4.37 8.316a2.24 2.24 0 0 1-1.181-2.954A2.266 2.266 0 0 1 6.15 4.178l2.876 1.22ZM10.5 5a1.5 1.5 0 0 0 .968 1.403c.35.085.714.085 1.064 0A1.5 1.5 0 1 0 10.5 5ZM23 17.5a5.5 5.5 0 1 1-11 0 5.5 5.5 0 0 1 11 0Zm-2.146-2.354a.5.5 0 0 0-.708 0L16.5 18.793l-1.646-1.647a.5.5 0 0 0-.708.708l2 2a.5.5 0 0 0 .708 0l4-4a.5.5 0 0 0 0-.708Z" fill="#212121"/>
</svg>
